cached_logos/sealer.svg

<svg xmlns="http://www.w3.org/2000/svg" role="img" xmlns:xlink="http://www.w3.org/1999/xlink" viewBox="-1.50 3.75 168.87 50.12"><title>sealer logo</title><defs><g id="glyph-0-0"><path d="M 1.84375 -9.289062 L 7.0625 -10.109375 C 7.355469 -8.019531 8.167969 -6.414062 9.507812 -5.304688 C 10.84375 -4.191406 12.714844 -3.632812 15.117188 -3.632812 C 17.539062 -3.632812 19.335938 -4.125 20.507812 -5.113281 C 21.679688 -6.097656 22.265625 -7.257812 22.265625 -8.585938 C 22.265625 -9.777344 21.75 -10.710938 20.710938 -11.398438 C 19.988281 -11.867188 18.195312 -12.460938 15.320312 -13.183594 C 11.453125 -14.160156 8.773438 -15.003906 7.28125 -15.71875 C 5.785156 -16.429688 4.652344 -17.417969 3.882812 -18.675781 C 3.109375 -19.9375 2.726562 -21.328125 2.726562 -22.851562 C 2.726562 -24.238281 3.042969 -25.523438 3.675781 -26.703125 C 4.3125 -27.886719 5.175781 -28.867188 6.269531 -29.648438 C 7.089844 -30.253906 8.207031 -30.765625 9.625 -31.1875 C 11.039062 -31.605469 12.558594 -31.816406 14.179688 -31.816406 C 16.621094 -31.816406 18.765625 -31.464844 20.609375 -30.761719 C 22.457031 -30.058594 23.820312 -29.105469 24.695312 -27.90625 C 25.574219 -26.703125 26.179688 -25.097656 26.515625 -23.085938 L 21.359375 -22.382812 C 21.125 -23.984375 20.445312 -25.234375 19.320312 -26.132812 C 18.199219 -27.03125 16.609375 -27.480469 14.5625 -27.480469 C 12.140625 -27.480469 10.410156 -27.078125 9.375 -26.28125 C 8.339844 -25.480469 7.820312 -24.539062 7.820312 -23.46875 C 7.820312 -22.785156 8.039062 -22.167969 8.46875 -21.621094 C 8.898438 -21.054688 9.570312 -20.585938 10.488281 -20.214844 C 11.015625 -20.019531 12.570312 -19.570312 15.148438 -18.867188 C 18.878906 -17.871094 21.480469 -17.054688 22.953125 -16.421875 C 24.429688 -15.785156 25.585938 -14.863281 26.425781 -13.652344 C 27.265625 -12.441406 27.6875 -10.9375 27.6875 -9.140625 C 27.6875 -7.382812 27.171875 -5.726562 26.148438 -4.175781 C 25.121094 -2.621094 23.640625 -1.421875 21.710938 -0.570312 C 19.777344 0.277344 17.585938 0.703125 15.148438 0.703125 C 11.105469 0.703125 8.023438 -0.136719 5.902344 -1.816406 C 3.785156 -3.496094 2.429688 -5.984375 1.84375 -9.289062 Z M 1.84375 -9.289062"/></g><g id="glyph-0-1"><path d="M 25.253906 -10.019531 L 30.703125 -9.34375 C 29.84375 -6.160156 28.25 -3.691406 25.929688 -1.933594 C 23.605469 -0.175781 20.632812 0.703125 17.023438 0.703125 C 12.472656 0.703125 8.863281 -0.699219 6.195312 -3.5 C 3.53125 -6.304688 2.195312 -10.234375 2.195312 -15.292969 C 2.195312 -20.527344 3.546875 -24.589844 6.242188 -27.480469 C 8.9375 -30.371094 12.429688 -31.816406 16.726562 -31.816406 C 20.886719 -31.816406 24.289062 -30.398438 26.921875 -27.570312 C 29.558594 -24.738281 30.878906 -20.75 30.878906 -15.617188 C 30.878906 -15.304688 30.867188 -14.835938 30.851562 -14.210938 L 7.648438 -14.210938 C 7.84375 -10.792969 8.808594 -8.171875 10.546875 -6.359375 C 12.285156 -4.542969 14.453125 -3.632812 17.050781 -3.632812 C 18.984375 -3.632812 20.632812 -4.140625 22 -5.15625 C 23.367188 -6.171875 24.453125 -7.792969 25.253906 -10.019531 Z M 7.9375 -18.546875 L 25.3125 -18.546875 C 25.078125 -21.164062 24.414062 -23.125 23.320312 -24.433594 C 21.640625 -26.464844 19.460938 -27.480469 16.789062 -27.480469 C 14.367188 -27.480469 12.328125 -26.671875 10.679688 -25.046875 C 9.027344 -23.425781 8.117188 -21.257812 7.9375 -18.546875 Z M 7.9375 -18.546875"/></g><g id="glyph-0-2"><path d="M 24.257812 -3.835938 C 22.304688 -2.175781 20.425781 -1.007812 18.617188 -0.320312 C 16.8125 0.363281 14.875 0.703125 12.804688 0.703125 C 9.386719 0.703125 6.757812 -0.132812 4.921875 -1.800781 C 3.085938 -3.472656 2.167969 -5.605469 2.167969 -8.203125 C 2.167969 -9.726562 2.515625 -11.117188 3.207031 -12.378906 C 3.902344 -13.636719 4.808594 -14.648438 5.933594 -15.410156 C 7.054688 -16.171875 8.320312 -16.75 9.726562 -17.140625 C 10.761719 -17.414062 12.324219 -17.675781 14.414062 -17.929688 C 18.671875 -18.4375 21.804688 -19.042969 23.820312 -19.746094 C 23.839844 -20.46875 23.847656 -20.929688 23.847656 -21.125 C 23.847656 -23.273438 23.351562 -24.785156 22.351562 -25.664062 C 21.003906 -26.855469 19.003906 -27.453125 16.347656 -27.453125 C 13.867188 -27.453125 12.035156 -27.015625 10.855469 -26.148438 C 9.671875 -25.277344 8.796875 -23.742188 8.234375 -21.53125 L 3.078125 -22.234375 C 3.546875 -24.441406 4.316406 -26.226562 5.390625 -27.582031 C 6.464844 -28.941406 8.015625 -29.984375 10.046875 -30.71875 C 12.078125 -31.449219 14.433594 -31.816406 17.109375 -31.816406 C 19.765625 -31.816406 21.921875 -31.503906 23.585938 -30.878906 C 25.246094 -30.253906 26.464844 -29.46875 27.246094 -28.519531 C 28.027344 -27.574219 28.574219 -26.375 28.886719 -24.929688 C 29.0625 -24.03125 29.148438 -22.414062 29.148438 -20.070312 L 29.148438 -13.039062 C 29.148438 -8.136719 29.261719 -5.035156 29.488281 -3.734375 C 29.710938 -2.4375 30.15625 -1.191406 30.820312 0 L 25.3125 0 C 24.765625 -1.09375 24.414062 -2.375 24.257812 -3.835938 Z M 23.820312 -15.617188 C 21.90625 -14.835938 19.03125 -14.171875 15.203125 -13.625 C 13.035156 -13.3125 11.503906 -12.960938 10.605469 -12.570312 C 9.707031 -12.179688 9.015625 -11.605469 8.523438 -10.855469 C 8.035156 -10.101562 7.792969 -9.265625 7.792969 -8.351562 C 7.792969 -6.945312 8.324219 -5.773438 9.390625 -4.835938 C 10.453125 -3.898438 12.011719 -3.429688 14.0625 -3.429688 C 16.09375 -3.429688 17.898438 -3.871094 19.484375 -4.761719 C 21.066406 -5.648438 22.226562 -6.867188 22.96875 -8.40625 C 23.535156 -9.597656 23.820312 -11.359375 23.820312 -13.679688 Z M 23.820312 -15.617188"/></g><g id="glyph-0-3"><path d="M 3.835938 0 L 3.835938 -42.949219 L 9.109375 -42.949219 L 9.109375 0 Z M 3.835938 0"/></g><g id="glyph-0-4"><path d="M 3.898438 0 L 3.898438 -31.113281 L 8.640625 -31.113281 L 8.640625 -26.398438 C 9.851562 -28.605469 10.972656 -30.058594 11.996094 -30.761719 C 13.023438 -31.464844 14.148438 -31.816406 15.382812 -31.816406 C 17.160156 -31.816406 18.964844 -31.25 20.800781 -30.117188 L 18.984375 -25.226562 C 17.695312 -25.988281 16.40625 -26.367188 15.117188 -26.367188 C 13.964844 -26.367188 12.929688 -26.019531 12.011719 -25.328125 C 11.09375 -24.632812 10.4375 -23.671875 10.046875 -22.441406 C 9.460938 -20.566406 9.171875 -18.515625 9.171875 -16.289062 L 9.171875 0 Z M 3.898438 0"/></g></defs><g><use y="50" xlink:href="#glyph-0-0"/><use x="30" y="50" xlink:href="#glyph-0-1"/><use x="63.369" y="50" xlink:href="#glyph-0-2"/><use x="96.738" y="50" xlink:href="#glyph-0-3"/><use x="110.068" y="50" xlink:href="#glyph-0-1"/><use x="143.438" y="50" xlink:href="#glyph-0-4"/></g></svg>

<svg xmlns="http://www.w3.org/2000/svg" role="img" xmlns:xlink="http://www.w3.org/1999/xlink" viewBox="-1.50 3.75 168.87 50.12"><title>sealer logo</title><defs><path d="M1.84375-9.28906l5.21875-.82032c.29297 2.08985 1.10547 3.69532 2.44531 4.8047 1.33594 1.11327 3.20703 1.67187 5.60938 1.67187 2.42187 0 4.21875-.49219 5.39062-1.48047 1.17188-.98438 1.75782-2.14453 1.75782-3.47266 0-1.1914-.51563-2.125-1.5547-2.8125-.72265-.46875-2.51562-1.0625-5.39062-1.78515-3.86718-.97657-6.54687-1.82032-8.03906-2.53516-1.4961-.71094-2.6289-1.69922-3.39844-2.95703-.77344-1.26172-1.15625-2.65235-1.15625-4.17578 0-1.38672.3164-2.67188.94922-3.85157.63672-1.18359 1.5-2.16406 2.59375-2.9453.82031-.60548 1.9375-1.1172 3.35547-1.53907 1.41406-.41797 2.9336-.6289 4.55469-.6289 2.4414 0 4.58593.35156 6.42968 1.05468 1.84766.70313 3.21094 1.65625 4.08594 2.85547.8789 1.20313 1.48438 2.8086 1.82032 4.82031l-5.15626.70313c-.23437-1.60157-.91406-2.85157-2.03906-3.75-1.1211-.89844-2.71093-1.34766-4.75781-1.34766-2.42188 0-4.15234.40235-5.1875 1.19922-1.03516.80078-1.55469 1.74219-1.55469 2.8125 0 .6836.21875 1.30078.64844 1.84766.42969.5664 1.10156 1.03515 2.01953 1.40625.52735.1953 2.08203.64453 4.66016 1.34765 3.73047.9961 6.33203 1.8125 7.80468 2.44532 1.47657.63671 2.63282 1.55859 3.47266 2.76953.83985 1.21093 1.26172 2.71484 1.26172 4.51172 0 1.7578-.51563 3.41406-1.53906 4.96484-1.02735 1.55469-2.50782 2.7539-4.4375 3.60547-1.9336.84765-4.125 1.27344-6.5625 1.27344-4.04297 0-7.125-.83985-9.2461-2.51954C3.78516-3.49609 2.4297-5.98437 1.84375-9.28906zm0 0" id="a"/><path d="M25.2539-10.01953l5.44922.67578c-.85937 3.1836-2.45312 5.65234-4.77343 7.41016C23.60547-.1758 20.6328.70312 17.02344.70312 12.47266.70313 8.86328-.69921 6.1953-3.5c-2.66406-2.80469-4-6.73438-4-11.79297 0-5.23437 1.35156-9.29687 4.04688-12.1875 2.69531-2.89062 6.1875-4.33594 10.48437-4.33594 4.16016 0 7.5625 1.41797 10.19532 4.2461C29.55859-24.73828 30.8789-20.75 30.8789-15.6172c0 .3125-.01172.78125-.02735 1.40625H7.64844c.19531 3.41797 1.16015 6.03907 2.89844 7.85157 1.73828 1.8164 3.90625 2.72656 6.5039 2.72656 1.9336 0 3.58203-.50781 4.94922-1.52344 1.36719-1.01563 2.45313-2.63672 3.2539-4.86328zM7.9375-18.54688h17.375c-.23438-2.61718-.89844-4.57812-1.99219-5.88671-1.67968-2.03125-3.85937-3.04688-6.53125-3.04688-2.42187 0-4.46093.8086-6.10937 2.4336-1.65235 1.62109-2.5625 3.78906-2.74219 6.5zm0 0" id="b"/><path d="M24.25781-3.83594C22.3047-2.17578 20.42578-1.0078 18.6172-.3203 16.8125.36329 14.875.70313 12.80469.70313c-3.41797 0-6.04688-.83594-7.88282-2.50391-1.83593-1.67188-2.7539-3.80469-2.7539-6.40235 0-1.52343.34766-2.91406 1.03906-4.17578.69531-1.2578 1.60156-2.26953 2.72656-3.03125 1.1211-.76172 2.38672-1.33984 3.79297-1.73047 1.03516-.27343 2.59766-.53515 4.6875-.78906 4.25782-.50781 7.39063-1.11328 9.40625-1.8164.01953-.72266.02735-1.1836.02735-1.37891 0-2.14844-.4961-3.66016-1.4961-4.53906-1.34765-1.1914-3.34765-1.78907-6.0039-1.78907-2.48047 0-4.3125.4375-5.4922 1.3047-1.18359.87109-2.05859 2.40624-2.62109 4.61718l-5.15625-.70313c.46875-2.20703 1.23829-3.99218 2.3125-5.34765 1.07422-1.35938 2.625-2.40235 4.65625-3.13672 2.03125-.73047 4.38672-1.09766 7.0625-1.09766 2.65626 0 4.8125.3125 6.47657.9375 1.66015.625 2.8789 1.41016 3.66015 2.35938.78125.94531 1.32813 2.14453 1.64063 3.58984.17578.89844.26172 2.51563.26172 4.85938v7.03125c0 4.90234.11328 8.0039.33984 9.30468C29.71094-2.4375 30.15625-1.1914 30.82031 0H25.3125c-.54688-1.09375-.89844-2.375-1.05469-3.83594zm-.4375-11.78125c-1.91406.78125-4.78906 1.44532-8.61718 1.99219-2.16797.3125-3.69922.66406-4.59766 1.05469-.89844.39062-1.58985.96484-2.08203 1.71484-.48828.7539-.73047 1.58985-.73047 2.5039 0 1.40626.53125 2.57813 1.59765 3.51563 1.0625.9375 2.6211 1.40625 4.67188 1.40625 2.03125 0 3.83594-.4414 5.42188-1.33203 1.58203-.88672 2.74218-2.10547 3.48437-3.64453.5664-1.1914.85156-2.95313.85156-5.27344zm0 0" id="c"/><path d="M3.83594 0v-42.94922h5.27343V0zm0 0" id="d"/><path d="M3.89844 0v-31.11328h4.74218v4.71484c1.21094-2.20703 2.33204-3.66015 3.35547-4.36328 1.02735-.70312 2.15235-1.05469 3.38672-1.05469 1.77735 0 3.58203.56641 5.41797 1.69922l-1.8164 4.89063c-1.28907-.76172-2.57813-1.14063-3.8672-1.14063-1.15234 0-2.1875.34766-3.10546 1.03907-.91797.6953-1.57422 1.65624-1.96485 2.88671-.58593 1.875-.875 3.92579-.875 6.15235V0zm0 0" id="e"/></defs><use y="50" xlink:href="#a"/><use x="30" y="50" xlink:href="#b"/><use x="63.369" y="50" xlink:href="#c"/><use x="96.738" y="50" xlink:href="#d"/><use x="110.068" y="50" xlink:href="#b"/><use x="143.438" y="50" xlink:href="#e"/></svg>
